assets/images/vector/icons/bell_icon.svg

<svg fill="none" height="56" viewBox="0 0 55 56" width="55" xmlns="http://www.w3.org/2000/svg"><path d="m50 43.3333c-3.6833 0-6.6667-2.9833-6.6667-6.6666v-15.8334c0-8.7433-7.09-15.8333-15.8333-15.8333s-15.8333 7.09-15.8333 15.8333v15.8334c0 3.6833-2.98337 6.6666-6.6667 6.6666z" stroke="#111" stroke-linecap="round" stroke-linejoin="round" stroke-width="10"/><path d="m32.7936 49.7834c-.3166-.39-.79-.6167-1.2933-.6167h-7.9967c-.5033 0-.9766.2267-1.2933.6167s-.44.9033-.3367 1.3933c.5767 2.74 2.8934 4.6567 5.63 4.6567 2.7367 0 5.0534-1.9167 5.63-4.6567.1034-.49-.0233-1.0033-.34-1.3933z" fill="#111"/></svg>

<svg width="55" height="56" viewBox="0 0 55 56" fill="none" xmlns="http://www.w3.org/2000/svg">
<path d="M50 43.3333C46.3167 43.3333 43.3333 40.35 43.3333 36.6667V20.8333C43.3333 12.09 36.2433 5 27.5 5C18.7567 5 11.6667 12.09 11.6667 20.8333V36.6667C11.6667 40.35 8.68333 43.3333 5 43.3333H50Z" stroke="#111111" stroke-width="10" stroke-linecap="round" stroke-linejoin="round"/>
<path d="M32.7936 49.7834C32.477 49.3934 32.0036 49.1667 31.5003 49.1667H23.5036C23.0003 49.1667 22.527 49.3934 22.2103 49.7834C21.8936 50.1734 21.7703 50.6867 21.8736 51.1767C22.4503 53.9167 24.767 55.8334 27.5036 55.8334C30.2403 55.8334 32.557 53.9167 33.1336 51.1767C33.237 50.6867 33.1103 50.1734 32.7936 49.7834Z" fill="#111111"/>
</svg>
